!!!OTL: Songlang dangbin
!!!ARE: Asia, China,ÿHunan Liuyang
!! I, 531
!!!SCT: C2195
!!!YEM: Copyright 1995, estate of Helmut Schaffrath.
**kern
*ICvox
*Ivox
!! Mixed meters:  3/4; 2/4
*M3/4
*k[f#c#]
*D:
{8b
8a
8b
8dd
8.ee
16ff#
=1
8ff#
8ff#
8dd
16ee
16dd
4b
=2
8dd
16dd
16ee
8f#
8a
4b
=3
8dd
8b
4a
4f#}
=4
{8b
8a
8b
8dd
8.ee
16ff#
=5
8ff#
8ff#
8dd
16ee
16dd
4b
=6
8dd
16dd
16ee
8f#
8a
4b
=7
8dd
8b
4a
4f#}
=8
*M2/4
{4dd
4b
=9
4a
4b
=10
*M3/4
8dd
16dd
16ee
8f#
8a
4b
=11
8dd
8b
4a
4f#}
==
!!!AGN: Xiaodiao, Shisong
!!!ONB: ESAC (Essen Associative Code) Database: SENGANSU
!!!AMT: irregular
!!!AIN: vox
!!!EED: Helmut Schaffrath
!!!EEV: 1.0
*-
